Newaita-dark/apps/48/kmymoney.svg

<svg height="48" viewBox="0 0 48 48" width="48" xmlns="http://www.w3.org/2000/svg" xmlns:xlink="http://www.w3.org/1999/xlink"><linearGradient id="a"><stop offset="0" stop-opacity=".313726"/><stop offset=".222222" stop-opacity=".27451"/><stop offset="1" stop-opacity="0"/></linearGradient><radialGradient id="b" cx="450.908936" cy="189.579361" gradientTransform="matrix(.00000026 -.117199 -.210958 -.00000015 66.784728 95.392994)" gradientUnits="userSpaceOnUse" r="21.166656" xlink:href="#a"/><radialGradient id="c" cx="450.908936" cy="189.579361" gradientTransform="matrix(-.00000026 .117199 .210958 .00000015 -19.155178 -11.291223)" gradientUnits="userSpaceOnUse" r="21.166656" xlink:href="#a"/><radialGradient id="d" cx="450.908936" cy="189.579361" gradientTransform="matrix(-.00000026 -.117199 .210958 -.00000015 -19.155178 95.392994)" gradientUnits="userSpaceOnUse" r="21.166656" xlink:href="#a"/><radialGradient id="e" cx="450.908936" cy="189.579361" gradientTransform="matrix(.00000026 .117199 -.210958 .00000015 66.784725 -11.291224)" gradientUnits="userSpaceOnUse" r="21.166656" xlink:href="#a"/><linearGradient id="f" gradientTransform="matrix(.0200401 0 0 .093759 18.698079 20.158175)" gradientUnits="userSpaceOnUse" x1="255.323059" x2="255.323044" y1="233.5" y2="254.666656"><stop offset="0" stop-opacity=".27451"/><stop offset="1" stop-opacity="0"/></linearGradient><linearGradient id="g" gradientUnits="userSpaceOnUse" x1="254" x2="254" y1="-168.666672" y2="233.5"><stop offset="0" stop-color="#ffb74d"/><stop offset="1" stop-color="#ffa726"/></linearGradient><linearGradient id="h" gradientUnits="userSpaceOnUse" x1="23.8147764" x2="23.8147764" y1="6.32872335259" y2="40.0663246"><stop offset="0" stop-color="#ffa726"/><stop offset="1" stop-color="#ffb74d"/></linearGradient><linearGradient id="i" gradientUnits="userSpaceOnUse" x1="23.85082175" x2="23.85082175" y1="11.290136" y2="35.104922"><stop offset="0" stop-color="#ffd54f"/><stop offset="1" stop-color="#ffca28"/></linearGradient><path d="m27.289062 42.050781h3.96875v-1.984375h-3.96875zm0 0" fill="url(#b)"/><path d="m20.339844 42.050781h-3.96875v1.984375h3.96875zm0 0" fill="url(#c)"/><path d="m20.339844 42.050781h-3.96875v-1.984375h3.96875zm0 0" fill="url(#d)"/><path d="m27.289062 42.050781h3.96875v1.984375h-3.96875zm0 0" fill="url(#e)"/><path d="m20.339844 41.554688h6.949218v2.480468h-6.949218zm0 0" fill="url(#f)"/><path d="m254.017409-168.671091c111.031064 0 201.064133 90.033069 201.064133 201.105795 0 111.031064-90.033069 201.064133-201.064133 201.064133-111.072726 0-201.105795-90.033069-201.105795-201.064133 0-111.072726 90.033069-201.105795 201.105795-201.105795zm0 0" fill="url(#g)" stroke="#333" stroke-linecap="round" stroke-width="3" transform="matrix(.093759 0 0 .093759 0 20.158175)"/><path d="m23.816406 42.050781c-10.445312 0-18.855468-8.410156-18.855468-18.851562 0-.0625 0-.125 0-.1875.101562 10.359375 8.472656 18.667969 18.855468 18.667969 10.382813 0 18.753906-8.308594 18.851563-18.667969v.1875c0 10.441406-8.410157 18.851562-18.851563 18.851562zm0 0" fill-opacity=".196078"/><path d="m23.816406 4.34375c-10.445312 0-18.855468 8.410156-18.855468 18.855469v.183593c.101562-10.359374 8.472656-18.667968 18.855468-18.667968 10.382813 0 18.753906 8.308594 18.851563 18.667968 0-.0625 0-.125 0-.183593 0-10.445313-8.410157-18.855469-18.851563-18.855469zm0 0" fill="#fff" fill-opacity=".392157"/><path d="m23.816406 4.203125c-10.523437 0-18.996094 8.472656-18.996094 18.996094 0 10.519531 8.472657 18.992187 18.996094 18.992187 10.519532 0 18.992188-8.472656 18.992188-18.992187 0-10.523438-8.472656-18.996094-18.992188-18.996094zm0 .28125c10.367188 0 18.710938 8.34375 18.710938 18.714844 0 10.367187-8.34375 18.710937-18.710938 18.710937-10.371094 0-18.714844-8.34375-18.714844-18.710937 0-10.371094 8.34375-18.714844 18.714844-18.714844zm0 0" fill="#212121"/><path d="m23.816406 6.328125c9.316406 0 16.867188 7.554687 16.867188 16.871094 0 9.316406-7.550782 16.867187-16.867188 16.867187s-16.871094-7.550781-16.871094-16.867187c0-9.316407 7.554688-16.871094 16.871094-16.871094zm0 0" fill="url(#h)"/><path d="m23.816406 6.328125c-9.347656 0-16.871094 7.523437-16.871094 16.871094 0 .121093.003907.246093.003907.371093.199219-9.171874 7.644531-16.496093 16.867187-16.496093 9.21875 0 16.667969 7.324219 16.863282 16.496093.003906-.125.003906-.25.003906-.371093 0-9.347657-7.523438-16.871094-16.867188-16.871094zm0 0" fill-opacity=".235294"/><path d="m23.816406 40.808594c-9.347656 0-16.871094-7.523438-16.871094-16.867188 0-.125.003907-.25.003907-.371094.199219 9.171876 7.644531 16.496094 16.867187 16.496094 9.21875 0 16.667969-7.324218 16.863282-16.496094.003906.121094.003906.246094.003906.371094 0 9.34375-7.523438 16.867188-16.867188 16.867188zm0 0" fill="#fff" fill-opacity=".392157"/><path d="m254.017409-147.506445c99.365511 0 179.899487 80.575638 179.899487 179.941149 0 99.365512-80.533976 179.899488-179.899487 179.899488s-179.94115-80.533976-179.94115-179.899488c0-99.365511 80.575639-179.941149 179.94115-179.941149zm0 0" fill="none" stroke="#212121" stroke-linecap="round" stroke-width="3" transform="matrix(.093759 0 0 .093759 0 20.158175)"/><path d="m18.359375 11.753906c-.824219.015625-1.484375.695313-1.472656 1.519532v9.679687c-.027344.160156-.027344.324219 0 .484375v9.683594c-.007813.539062.277343 1.039062.742187 1.3125.46875.269531 1.042969.269531 1.507813 0 .46875-.273438.75-.773438.746093-1.3125v-6.726563l9.449219 7.875c.410157.351563.976563.453125 1.484375.269531.507813-.183593.875-.625.964844-1.15625.089844-.535156-.113281-1.074218-.53125-1.414062l-8.847656-7.371094c1.699218-.140625 3.371094-.484375 4.894531-1.332031 2.726563-1.515625 4.492187-4.730469 4.492187-9.992187.007813-.539063-.277343-1.039063-.742187-1.308594-.46875-.273438-1.042969-.273438-1.507813 0-.46875.269531-.75.769531-.746093 1.308594 0 4.664062-1.210938 6.410156-2.949219 7.375-1.441406.800781-3.582031.988281-5.960938 1.03125v-8.40625c.003907-.402344-.152343-.792969-.441406-1.078126-.285156-.289062-.675781-.445312-1.082031-.441406zm0 0" fill="url(#i)"/><path d="m18.359375 11.753906c-.824219.015625-1.484375.695313-1.472656 1.519532v.523437c-.011719-.828125.648437-1.507813 1.472656-1.519531.40625-.003906.796875.152344 1.082031.4375.289063.289062.445313.675781.441406 1.082031v-.523437c.003907-.402344-.152343-.792969-.441406-1.078126-.285156-.289062-.675781-.445312-1.082031-.441406zm11.90625.003906c-.824219.015626-1.480469.691407-1.472656 1.515626 0 4.664062-1.210938 6.410156-2.949219 7.375-1.441406.800781-3.582031.988281-5.960938 1.03125v.523437c2.378907-.042969 4.519532-.234375 5.960938-1.03125 1.738281-.96875 2.949219-2.710937 2.949219-7.375-.007813-.824219.648437-1.5 1.472656-1.515625.800781-.011719 1.46875.605469 1.519531 1.402344.003906-.132813.003906-.269532.003906-.410156.003907-.402344-.15625-.792969-.441406-1.078126-.289062-.285156-.679687-.441406-1.082031-.4375zm-13.378906 11.195313c-.027344.160156-.027344.324219 0 .484375zm6.339843 2.332031c-.273437.035156-.546874.0625-.824218.085938l.5625.46875c.085937-.011719.175781-.019532.261718-.03125l8.023438 6.683594c.277344.226562.464844.546874.527344.902343.097656-.535156-.105469-1.082031-.527344-1.425781zm0 0" fill="#fff" fill-opacity=".588235"/><path d="m31.78125 13.929688c-.144531 4.875-1.871094 7.886718-4.484375 9.335937-1.523437.847656-3.195313 1.191406-4.894531 1.332031l.886718.738282c1.390626-.179688 2.75-.535157 4.007813-1.234376 2.726563-1.515624 4.492187-4.730468 4.492187-9.992187 0-.058594-.003906-.117187-.007812-.179687zm-14.894531 9.859374c-.027344.160157-.027344.324219 0 .484376zm2.996093 2.605469v.835938l9.449219 7.875c.503907.425781 1.226563.476562 1.78125.117187.554688-.355468.8125-1.035156.628907-1.671875-.140626.488281-.523438.871094-1.007813 1.015625-.488281.144532-1.015625.035156-1.402344-.296875zm-2.996093 6.726563v.832031c-.007813.539063.277343 1.042969.742187 1.3125.46875.273437 1.042969.273437 1.507813 0 .46875-.269531.75-.773437.746093-1.3125v-.832031c.003907.539062-.277343 1.039062-.746093 1.3125-.464844.269531-1.039063.269531-1.507813 0-.464844-.273438-.75-.773438-.742187-1.3125zm0 0" fill-opacity=".235294"/><path d="m460.014005-79.053635c-8.790827.166651-15.831821 7.415959-15.706833 16.206786v103.240141c-.291639 1.70817-.291639 3.458003 0 5.166173v103.281804c-.083325 5.749451 2.958051 11.082275 7.915911 13.998663 4.999522 2.874726 11.123937 2.874726 16.081797 0 4.999523-2.916388 7.999236-8.249212 7.957574-13.998663v-71.743149l100.782042 83.991979c4.374582 3.749642 10.415672 4.832872 15.831822 2.874726 5.416149-1.958147 9.332442-6.66603 10.290684-12.332156.958241-5.707788-1.208218-11.457239-5.666126-15.081893l-94.365989-78.617492c18.12327-1.499857 35.9549-5.166174 52.203349-14.206977 29.080556-16.165123 47.912091-50.453515 47.912091-106.573156.083325-5.749451-2.958051-11.082275-7.915911-13.957001-4.999522-2.916388-11.123938-2.916388-16.081797 0-4.999523 2.874726-7.999237 8.20755-7.957574 13.957001 0 49.745249-12.915433 68.368471-31.455329 78.659155-15.373532 8.540851-38.204685 10.54066-63.577262 10.99895v-89.658105c.041662-4.291257-1.624845-8.457526-4.707884-11.498902-3.041376-3.083039-7.207645-4.749546-11.540565-4.707884zm0 0" fill="none" stroke="#212121" stroke-linecap="round" stroke-linejoin="round" stroke-width="3" transform="matrix(.093759 0 0 .093759 -24.771056 19.165892)"/></svg>

<?xml version="1.0" encoding="UTF-8"?>
<svg xmlns="http://www.w3.org/2000/svg" xmlns:xlink="http://www.w3.org/1999/xlink" width="48px" height="48px" viewBox="0 0 48 48" version="1.1">
<defs>
<radialGradient id="radial0" gradientUnits="userSpaceOnUse" cx="450.908936" cy="189.579361" fx="450.908936" fy="189.579361" r="21.166656" gradientTransform="matrix(0.000000261256,-0.117199,-0.210958,-0.000000152308,66.784728,95.392994)">
<stop offset="0" style="stop-color:rgb(0%,0%,0%);stop-opacity:0.313726;"/>
<stop offset="0.222222" style="stop-color:rgb(0%,0%,0%);stop-opacity:0.27451;"/>
<stop offset="1" style="stop-color:rgb(0%,0%,0%);stop-opacity:0;"/>
</radialGradient>
<radialGradient id="radial1" gradientUnits="userSpaceOnUse" cx="450.908936" cy="189.579361" fx="450.908936" fy="189.579361" r="21.166656" gradientTransform="matrix(-0.000000261256,0.117199,0.210958,0.000000152308,-19.155178,-11.291223)">
<stop offset="0" style="stop-color:rgb(0%,0%,0%);stop-opacity:0.313726;"/>
<stop offset="0.222222" style="stop-color:rgb(0%,0%,0%);stop-opacity:0.27451;"/>
<stop offset="1" style="stop-color:rgb(0%,0%,0%);stop-opacity:0;"/>
</radialGradient>
<radialGradient id="radial2" gradientUnits="userSpaceOnUse" cx="450.908936" cy="189.579361" fx="450.908936" fy="189.579361" r="21.166656" gradientTransform="matrix(-0.000000261256,-0.117199,0.210958,-0.000000152308,-19.155178,95.392994)">
<stop offset="0" style="stop-color:rgb(0%,0%,0%);stop-opacity:0.313726;"/>
<stop offset="0.222222" style="stop-color:rgb(0%,0%,0%);stop-opacity:0.27451;"/>
<stop offset="1" style="stop-color:rgb(0%,0%,0%);stop-opacity:0;"/>
</radialGradient>
<radialGradient id="radial3" gradientUnits="userSpaceOnUse" cx="450.908936" cy="189.579361" fx="450.908936" fy="189.579361" r="21.166656" gradientTransform="matrix(0.000000261256,0.117199,-0.210958,0.000000152308,66.784725,-11.291224)">
<stop offset="0" style="stop-color:rgb(0%,0%,0%);stop-opacity:0.313726;"/>
<stop offset="0.222222" style="stop-color:rgb(0%,0%,0%);stop-opacity:0.27451;"/>
<stop offset="1" style="stop-color:rgb(0%,0%,0%);stop-opacity:0;"/>
</radialGradient>
<linearGradient id="linear0" gradientUnits="userSpaceOnUse" x1="255.323059" y1="233.5" x2="255.323044" y2="254.666656" gradientTransform="matrix(0.0200401,0,0,0.093759,18.698079,20.158175)">
<stop offset="0" style="stop-color:rgb(0%,0%,0%);stop-opacity:0.27451;"/>
<stop offset="1" style="stop-color:rgb(0%,0%,0%);stop-opacity:0;"/>
</linearGradient>
<linearGradient id="linear1" gradientUnits="userSpaceOnUse" x1="254" y1="-168.666672" x2="254" y2="233.5" gradientTransform="matrix(1,0,0,1,0,0)">
<stop offset="0" style="stop-color:rgb(100%,71.764708%,30.19608%);stop-opacity:1;"/>
<stop offset="1" style="stop-color:rgb(100%,65.490198%,14.901961%);stop-opacity:1;"/>
</linearGradient>
<linearGradient id="linear2" gradientUnits="userSpaceOnUse" x1="254" y1="-168.666672" x2="254" y2="233.5" gradientTransform="matrix(0.0838896,0,0,0.0838896,2.506818,20.478103)">
<stop offset="0" style="stop-color:rgb(100%,65.490198%,14.901961%);stop-opacity:1;"/>
<stop offset="1" style="stop-color:rgb(100%,71.764708%,30.19608%);stop-opacity:1;"/>
</linearGradient>
<linearGradient id="linear3" gradientUnits="userSpaceOnUse" x1="984.25" y1="-84" x2="984.25" y2="170" gradientTransform="matrix(0.093759,0,0,0.093759,-68.431474,19.165892)">
<stop offset="0" style="stop-color:rgb(100%,83.529413%,30.980393%);stop-opacity:1;"/>
<stop offset="1" style="stop-color:rgb(100%,79.215688%,15.686275%);stop-opacity:1;"/>
</linearGradient>
</defs>
<g id="surface1">
<path style=" stroke:none;fill-rule:nonzero;fill:url(#radial0);" d="M 27.289062 42.050781 L 31.257812 42.050781 L 31.257812 40.066406 L 27.289062 40.066406 Z M 27.289062 42.050781 "/>
<path style=" stroke:none;fill-rule:nonzero;fill:url(#radial1);" d="M 20.339844 42.050781 L 16.371094 42.050781 L 16.371094 44.035156 L 20.339844 44.035156 Z M 20.339844 42.050781 "/>
<path style=" stroke:none;fill-rule:nonzero;fill:url(#radial2);" d="M 20.339844 42.050781 L 16.371094 42.050781 L 16.371094 40.066406 L 20.339844 40.066406 Z M 20.339844 42.050781 "/>
<path style=" stroke:none;fill-rule:nonzero;fill:url(#radial3);" d="M 27.289062 42.050781 L 31.257812 42.050781 L 31.257812 44.035156 L 27.289062 44.035156 Z M 27.289062 42.050781 "/>
<path style=" stroke:none;fill-rule:nonzero;fill:url(#linear0);" d="M 20.339844 41.554688 L 27.289062 41.554688 L 27.289062 44.035156 L 20.339844 44.035156 Z M 20.339844 41.554688 "/>
<path style="fill-rule:nonzero;fill:url(#linear1);stroke-width:3;stroke-linecap:round;stroke-linejoin:miter;stroke:rgb(20%,20%,20%);stroke-opacity:1;stroke-miterlimit:4;" d="M 254.017409 -168.671091 C 365.048473 -168.671091 455.081542 -78.638022 455.081542 32.434704 C 455.081542 143.465768 365.048473 233.498837 254.017409 233.498837 C 142.944683 233.498837 52.911614 143.465768 52.911614 32.434704 C 52.911614 -78.638022 142.944683 -168.671091 254.017409 -168.671091 Z M 254.017409 -168.671091 " transform="matrix(0.093759,0,0,0.093759,0,20.158175)"/>
<path style=" stroke:none;fill-rule:nonzero;fill:rgb(0%,0%,0%);fill-opacity:0.196078;" d="M 23.816406 42.050781 C 13.371094 42.050781 4.960938 33.640625 4.960938 23.199219 C 4.960938 23.136719 4.960938 23.074219 4.960938 23.011719 C 5.0625 33.371094 13.433594 41.679688 23.816406 41.679688 C 34.199219 41.679688 42.570312 33.371094 42.667969 23.011719 C 42.667969 23.074219 42.667969 23.136719 42.667969 23.199219 C 42.667969 33.640625 34.257812 42.050781 23.816406 42.050781 Z M 23.816406 42.050781 "/>
<path style=" stroke:none;fill-rule:nonzero;fill:rgb(100%,100%,100%);fill-opacity:0.392157;" d="M 23.816406 4.34375 C 13.371094 4.34375 4.960938 12.753906 4.960938 23.199219 C 4.960938 23.257812 4.960938 23.320312 4.960938 23.382812 C 5.0625 13.023438 13.433594 4.714844 23.816406 4.714844 C 34.199219 4.714844 42.570312 13.023438 42.667969 23.382812 C 42.667969 23.320312 42.667969 23.257812 42.667969 23.199219 C 42.667969 12.753906 34.257812 4.34375 23.816406 4.34375 Z M 23.816406 4.34375 "/>
<path style=" stroke:none;fill-rule:nonzero;fill:rgb(12.941177%,12.941177%,12.941177%);fill-opacity:1;" d="M 23.816406 4.203125 C 13.292969 4.203125 4.820312 12.675781 4.820312 23.199219 C 4.820312 33.71875 13.292969 42.191406 23.816406 42.191406 C 34.335938 42.191406 42.808594 33.71875 42.808594 23.199219 C 42.808594 12.675781 34.335938 4.203125 23.816406 4.203125 Z M 23.816406 4.484375 C 34.183594 4.484375 42.527344 12.828125 42.527344 23.199219 C 42.527344 33.566406 34.183594 41.910156 23.816406 41.910156 C 13.445312 41.910156 5.101562 33.566406 5.101562 23.199219 C 5.101562 12.828125 13.445312 4.484375 23.816406 4.484375 Z M 23.816406 4.484375 "/>
<path style=" stroke:none;fill-rule:nonzero;fill:url(#linear2);" d="M 23.816406 6.328125 C 33.132812 6.328125 40.683594 13.882812 40.683594 23.199219 C 40.683594 32.515625 33.132812 40.066406 23.816406 40.066406 C 14.5 40.066406 6.945312 32.515625 6.945312 23.199219 C 6.945312 13.882812 14.5 6.328125 23.816406 6.328125 Z M 23.816406 6.328125 "/>
<path style=" stroke:none;fill-rule:nonzero;fill:rgb(0%,0%,0%);fill-opacity:0.235294;" d="M 23.816406 6.328125 C 14.46875 6.328125 6.945312 13.851562 6.945312 23.199219 C 6.945312 23.320312 6.949219 23.445312 6.949219 23.570312 C 7.148438 14.398438 14.59375 7.074219 23.816406 7.074219 C 33.035156 7.074219 40.484375 14.398438 40.679688 23.570312 C 40.683594 23.445312 40.683594 23.320312 40.683594 23.199219 C 40.683594 13.851562 33.160156 6.328125 23.816406 6.328125 Z M 23.816406 6.328125 "/>
<path style=" stroke:none;fill-rule:nonzero;fill:rgb(100%,100%,100%);fill-opacity:0.392157;" d="M 23.816406 40.808594 C 14.46875 40.808594 6.945312 33.285156 6.945312 23.941406 C 6.945312 23.816406 6.949219 23.691406 6.949219 23.570312 C 7.148438 32.742188 14.59375 40.066406 23.816406 40.066406 C 33.035156 40.066406 40.484375 32.742188 40.679688 23.570312 C 40.683594 23.691406 40.683594 23.816406 40.683594 23.941406 C 40.683594 33.285156 33.160156 40.808594 23.816406 40.808594 Z M 23.816406 40.808594 "/>
<path style="fill:none;stroke-width:3;stroke-linecap:round;stroke-linejoin:miter;stroke:rgb(12.941177%,12.941177%,12.941177%);stroke-opacity:1;stroke-miterlimit:4;" d="M 254.017409 -147.506445 C 353.38292 -147.506445 433.916896 -66.930807 433.916896 32.434704 C 433.916896 131.800216 353.38292 212.334192 254.017409 212.334192 C 154.651898 212.334192 74.076259 131.800216 74.076259 32.434704 C 74.076259 -66.930807 154.651898 -147.506445 254.017409 -147.506445 Z M 254.017409 -147.506445 " transform="matrix(0.093759,0,0,0.093759,0,20.158175)"/>
<path style=" stroke:none;fill-rule:nonzero;fill:url(#linear3);" d="M 18.359375 11.753906 C 17.535156 11.769531 16.875 12.449219 16.886719 13.273438 L 16.886719 22.953125 C 16.859375 23.113281 16.859375 23.277344 16.886719 23.4375 L 16.886719 33.121094 C 16.878906 33.660156 17.164062 34.160156 17.628906 34.433594 C 18.097656 34.703125 18.671875 34.703125 19.136719 34.433594 C 19.605469 34.160156 19.886719 33.660156 19.882812 33.121094 L 19.882812 26.394531 L 29.332031 34.269531 C 29.742188 34.621094 30.308594 34.722656 30.816406 34.539062 C 31.324219 34.355469 31.691406 33.914062 31.78125 33.382812 C 31.871094 32.847656 31.667969 32.308594 31.25 31.96875 L 22.402344 24.597656 C 24.101562 24.457031 25.773438 24.113281 27.296875 23.265625 C 30.023438 21.75 31.789062 18.535156 31.789062 13.273438 C 31.796875 12.734375 31.511719 12.234375 31.046875 11.964844 C 30.578125 11.691406 30.003906 11.691406 29.539062 11.964844 C 29.070312 12.234375 28.789062 12.734375 28.792969 13.273438 C 28.792969 17.9375 27.582031 19.683594 25.84375 20.648438 C 24.402344 21.449219 22.261719 21.636719 19.882812 21.679688 L 19.882812 13.273438 C 19.886719 12.871094 19.730469 12.480469 19.441406 12.195312 C 19.15625 11.90625 18.765625 11.75 18.359375 11.753906 Z M 18.359375 11.753906 "/>
<path style=" stroke:none;fill-rule:nonzero;fill:rgb(100%,100%,100%);fill-opacity:0.588235;" d="M 18.359375 11.753906 C 17.535156 11.769531 16.875 12.449219 16.886719 13.273438 L 16.886719 13.796875 C 16.875 12.96875 17.535156 12.289062 18.359375 12.277344 C 18.765625 12.273438 19.15625 12.429688 19.441406 12.714844 C 19.730469 13.003906 19.886719 13.390625 19.882812 13.796875 L 19.882812 13.273438 C 19.886719 12.871094 19.730469 12.480469 19.441406 12.195312 C 19.15625 11.90625 18.765625 11.75 18.359375 11.753906 Z M 30.265625 11.757812 C 29.441406 11.773438 28.785156 12.449219 28.792969 13.273438 C 28.792969 17.9375 27.582031 19.683594 25.84375 20.648438 C 24.402344 21.449219 22.261719 21.636719 19.882812 21.679688 L 19.882812 22.203125 C 22.261719 22.160156 24.402344 21.96875 25.84375 21.171875 C 27.582031 20.203125 28.792969 18.460938 28.792969 13.796875 C 28.785156 12.972656 29.441406 12.296875 30.265625 12.28125 C 31.066406 12.269531 31.734375 12.886719 31.785156 13.683594 C 31.789062 13.550781 31.789062 13.414062 31.789062 13.273438 C 31.792969 12.871094 31.632812 12.480469 31.347656 12.195312 C 31.058594 11.910156 30.667969 11.753906 30.265625 11.757812 Z M 16.886719 22.953125 C 16.859375 23.113281 16.859375 23.277344 16.886719 23.4375 Z M 23.226562 25.285156 C 22.953125 25.320312 22.679688 25.347656 22.402344 25.371094 L 22.964844 25.839844 C 23.050781 25.828125 23.140625 25.820312 23.226562 25.808594 L 31.25 32.492188 C 31.527344 32.71875 31.714844 33.039062 31.777344 33.394531 C 31.875 32.859375 31.671875 32.3125 31.25 31.96875 Z M 23.226562 25.285156 "/>
<path style=" stroke:none;fill-rule:nonzero;fill:rgb(0%,0%,0%);fill-opacity:0.235294;" d="M 31.78125 13.929688 C 31.636719 18.804688 29.910156 21.816406 27.296875 23.265625 C 25.773438 24.113281 24.101562 24.457031 22.402344 24.597656 L 23.289062 25.335938 C 24.679688 25.15625 26.039062 24.800781 27.296875 24.101562 C 30.023438 22.585938 31.789062 19.371094 31.789062 14.109375 C 31.789062 14.050781 31.785156 13.992188 31.78125 13.929688 Z M 16.886719 23.789062 C 16.859375 23.949219 16.859375 24.113281 16.886719 24.273438 Z M 19.882812 26.394531 L 19.882812 27.230469 L 29.332031 35.105469 C 29.835938 35.53125 30.558594 35.582031 31.113281 35.222656 C 31.667969 34.867188 31.925781 34.1875 31.742188 33.550781 C 31.601562 34.039062 31.21875 34.421875 30.734375 34.566406 C 30.246094 34.710938 29.71875 34.601562 29.332031 34.269531 Z M 16.886719 33.121094 L 16.886719 33.953125 C 16.878906 34.492188 17.164062 34.996094 17.628906 35.265625 C 18.097656 35.539062 18.671875 35.539062 19.136719 35.265625 C 19.605469 34.996094 19.886719 34.492188 19.882812 33.953125 L 19.882812 33.121094 C 19.886719 33.660156 19.605469 34.160156 19.136719 34.433594 C 18.671875 34.703125 18.097656 34.703125 17.628906 34.433594 C 17.164062 34.160156 16.878906 33.660156 16.886719 33.121094 Z M 16.886719 33.121094 "/>
<path style="fill:none;stroke-width:3;stroke-linecap:round;stroke-linejoin:round;stroke:rgb(12.941177%,12.941177%,12.941177%);stroke-opacity:1;stroke-miterlimit:4;" d="M 460.014005 -79.053635 C 451.223178 -78.886984 444.182184 -71.637676 444.307172 -62.846849 L 444.307172 40.393292 C 444.015533 42.101462 444.015533 43.851295 444.307172 45.559465 L 444.307172 148.841269 C 444.223847 154.59072 447.265223 159.923544 452.223083 162.839932 C 457.222605 165.714658 463.34702 165.714658 468.30488 162.839932 C 473.304403 159.923544 476.304116 154.59072 476.262454 148.841269 L 476.262454 77.09812 L 577.044496 161.090099 C 581.419078 164.839741 587.460168 165.922971 592.876318 163.964825 C 598.292467 162.006678 602.20876 157.298795 603.167002 151.632669 C 604.125243 145.924881 601.958784 140.17543 597.500876 136.550776 L 503.134887 57.933284 C 521.258157 56.433427 539.089787 52.76711 555.338236 43.726307 C 584.418792 27.561184 603.250327 -6.727208 603.250327 -62.846849 C 603.333652 -68.5963 600.292276 -73.929124 595.334416 -76.80385 C 590.334894 -79.720238 584.210478 -79.720238 579.252619 -76.80385 C 574.253096 -73.929124 571.253382 -68.5963 571.295045 -62.846849 C 571.295045 -13.1016 558.379612 5.521622 539.839716 15.812306 C 524.466184 24.353157 501.635031 26.352966 476.262454 26.811256 L 476.262454 -62.846849 C 476.304116 -67.138106 474.637609 -71.304375 471.55457 -74.345751 C 468.513194 -77.42879 464.346925 -79.095297 460.014005 -79.053635 Z M 460.014005 -79.053635 " transform="matrix(0.093759,0,0,0.093759,-24.771056,19.165892)"/>
</g>
</svg>
